X:115
T:Martha's Old Pine Tree
R:jig
C:Bruce Osborne - June 2002
Z:abc by bosborne@kos.net
M:6/8
L:1/8
K:Bb
B/c/|dBF DFB|gf=e fcd|ecB AcA|gf=e fBc|\
dBF DFB|gf=e fcd|ecB AcA|FGA B2:|
|:B/c/|dBF DFB|DFB Bcd|ecA ecA|gf=e fBc|\
dBF DFB|DFB Bcd|ecB AcA|FGA B2:|
